X: 10401
T: AGNES SOREL QUADRILLES Part 3
C: Arranged by W. B. Laybourn
R: jig
B: K\"ohler's Violin Repository, v.1, 1885 p.40 #1
F: http://www.archive.org/details/klersviolinrepos01edin
Z: 2011 John Chambers <jc:trillian.mit.edu>
M: 6/8
L: 1/8
K: Bb
[|\
vfdB (.Fz.g) | f3 d2z | fdB (.Fz.g) | f3 d3 |\
[eF][eF][eF] [eF][eF][eF] | [eF][eF][eF] [eF][eF][eF] | [eF][eF][eF] [eF][eF][eF] | [d2F2]z b2 ||
uf |\
(g2f) (g2f) | e'3- e'(d'c') | bBc de=e | g3- g2f |\
(g2f) (g2f) | e'3- e'(d'c') | v[b2d2]z u[b2d2]z | [B2D2]z z2u"^D.C."F ||[K:Eb]
((3uB/c/B/) | .Gz.B .ez.B | (g3 e) ((3B/c/B/) | .Gz.B .ez.B |\
(g3 e2)B | (.a2.g) (.f2.=e) | (.f2.e) (.d2.c) | (.b2.a) (.g2.f) | e2z ve2z "_D.C."|]

%%sep 2 1 500

